lib/logo_tmp/nrk-logo-nrk-sapmi.svg

<svg width="101" height="24" viewBox="0 0 101 24" fill="none" xmlns="http://www.w3.org/2000/svg">
<path d="M6.10352e-05 19.0033V5.00453H4.59345V19.0033H6.10352e-05ZM10.8428 7.2325L13.4845 19.0033H8.45743L5.30313 5.00453H8.1226C8.76913 4.99614 9.39647 5.22405 9.88698 5.64538C10.3783 6.04903 10.7158 6.6094 10.8428 7.2325ZM14.1745 19.0033V5.00453H18.7679V19.0033H14.1745ZM22.2373 10.328C21.7423 10.3329 21.2553 10.2034 20.828 9.95338C20.4065 9.70973 20.0563 9.35954 19.8127 8.93795C19.5625 8.51064 19.4329 8.02348 19.4379 7.52829C19.4322 7.03613 19.5618 6.55186 19.8127 6.12842C20.0589 5.71141 20.4087 5.36503 20.828 5.12286C21.2554 4.87317 21.7423 4.74369 22.2373 4.7482C22.7293 4.7429 23.2134 4.87251 23.637 5.12286C24.0521 5.36715 24.3982 5.71324 24.6424 6.12842C24.893 6.55198 25.0226 7.03616 25.0173 7.52829C25.0219 8.02344 24.8924 8.51052 24.6424 8.93795C24.4007 9.35769 24.0543 9.70758 23.637 9.95338C23.2133 10.2042 22.7289 10.3339 22.2366 10.328H22.2373ZM25.727 19.0033V5.00453H30.3208V19.0033H25.727ZM36.1361 12.6545C36.149 12.6681 36.2475 12.8291 36.4318 13.1376C36.616 13.446 36.8558 13.8404 37.1513 14.3206C37.447 14.8006 37.7591 15.3099 38.0874 15.8486C38.4158 16.3873 38.7248 16.8967 39.0144 17.3767C39.3028 17.8566 39.6314 18.3988 40.0001 19.0033H34.9532C34.6376 18.4906 34.3516 18.0273 34.0953 17.6132C33.839 17.1992 33.5666 16.7523 33.2779 16.2725C32.9885 15.7932 32.7024 15.3265 32.4196 14.8726C32.1368 14.4187 31.8938 14.0211 31.6905 13.6798C31.4864 13.3383 31.345 13.1082 31.2663 12.9897C31.0714 12.6956 30.956 12.3559 30.9315 12.0039C30.9511 11.666 31.0598 11.3394 31.2466 11.0572C31.3255 10.9258 31.4701 10.6924 31.6803 10.3572C31.8906 10.0221 32.1371 9.62448 32.4196 9.16443C32.7022 8.70438 32.9883 8.23446 33.2779 7.75469C33.5675 7.27492 33.8399 6.8247 34.0953 6.40408C34.352 5.9839 34.638 5.51727 34.9532 5.00421H40.0001L36.0963 11.3727C35.9755 11.5617 35.9074 11.7797 35.8991 12.0039C35.9121 12.2393 35.9943 12.4656 36.1354 12.6545H36.1361Z" fill="white"/>
<path d="M53.8393 12.4401C53.5549 12.1466 53.2249 11.9023 52.8626 11.7171C52.4827 11.5221 52.0874 11.3598 51.6808 11.2318C51.2636 11.0997 50.8339 10.9874 50.3916 10.8947C50.0526 10.8157 49.7368 10.7366 49.4443 10.6574C49.1754 10.587 48.9137 10.4907 48.6629 10.3698C48.4473 10.2663 48.2469 10.133 48.0675 9.97366C47.8984 9.82255 47.7676 9.63241 47.6862 9.41933C47.5961 9.16874 47.553 8.90325 47.5593 8.63658C47.5549 8.36045 47.5978 8.08565 47.6862 7.82444C47.7664 7.59401 47.9004 7.38669 48.0769 7.22026C48.2598 7.05045 48.4675 6.91028 48.6925 6.80464C48.9497 6.68575 49.2227 6.60564 49.5028 6.56691C49.8361 6.51877 50.1725 6.49561 50.5092 6.4976C50.8157 6.4982 51.1219 6.51463 51.4268 6.5468C51.7354 6.57946 52.042 6.62914 52.3452 6.69567C52.6396 6.76046 52.9299 6.84315 53.2145 6.94328C53.4809 7.03619 53.7391 7.15208 53.9861 7.28962L54.2596 5.54679C53.9818 5.39984 53.6907 5.28045 53.3903 5.19026C53.084 5.09804 52.7748 5.01867 52.4625 4.9522C52.1462 4.88592 51.8267 4.83645 51.5053 4.80398C51.1797 4.77096 50.8477 4.75445 50.5092 4.75445C49.8184 4.74688 49.1294 4.82661 48.4581 4.99182C47.8866 5.13177 47.3465 5.38062 46.8665 5.72508C46.4242 6.04679 46.0682 6.47568 45.8312 6.97266C45.5783 7.53122 45.4548 8.14101 45.4699 8.75542C45.4587 9.23091 45.5349 9.70436 45.6945 10.1516C45.8345 10.5266 46.0507 10.8675 46.329 11.1522C46.6045 11.4308 46.9208 11.6647 47.2666 11.8455C47.6334 12.0372 48.0158 12.1964 48.4097 12.3213C48.8199 12.4533 49.2398 12.5656 49.6695 12.658C50.0211 12.737 50.3467 12.8196 50.6462 12.9056C50.9247 12.9834 51.1959 13.0862 51.4565 13.2126C51.6807 13.32 51.8881 13.4601 52.0722 13.6286C52.2466 13.7948 52.3831 13.9976 52.4723 14.2229C52.576 14.4942 52.6259 14.7837 52.6191 15.0746C52.6242 15.384 52.578 15.692 52.4824 15.9858C52.3966 16.2399 52.264 16.4752 52.0916 16.6791C51.9184 16.8801 51.7054 17.042 51.4666 17.1542C51.1967 17.2803 50.9106 17.3671 50.6168 17.412C50.2583 17.4678 49.8959 17.4943 49.5331 17.4913C49.1804 17.4904 48.8282 17.4672 48.4783 17.4219C48.1137 17.3757 47.7489 17.3129 47.3841 17.2334C47.0248 17.1558 46.6696 17.06 46.3199 16.9462C45.9743 16.8346 45.6455 16.7192 45.3334 16.5999L45.5874 18.5609C45.9203 18.6869 46.2594 18.7959 46.6031 18.8874C46.9151 18.9705 47.2312 19.0366 47.5501 19.0855C47.8562 19.1315 48.1623 19.1678 48.4685 19.1944C48.7748 19.2211 49.0839 19.2343 49.396 19.2341C50.0953 19.2385 50.793 19.1654 51.4767 19.0162C52.0818 18.8875 52.6579 18.6457 53.1757 18.3031C53.6591 17.9788 54.0499 17.5313 54.309 17.0056C54.5942 16.3829 54.7312 15.7011 54.7091 15.0149C54.7198 14.5036 54.6439 13.9943 54.4848 13.5091C54.3482 13.1097 54.128 12.745 53.8393 12.4401Z" fill="white"/>
<path d="M65.5299 17.7686C65.3871 17.7818 65.2432 17.7599 65.1106 17.7048C64.9779 17.6496 64.8603 17.5628 64.7678 17.4516C64.5867 17.1342 64.5114 16.766 64.5532 16.4018L64.5919 12.3212C64.5963 11.8935 64.5437 11.4671 64.4357 11.0535C64.341 10.6907 64.1822 10.3483 63.9669 10.0429C63.7496 9.74458 63.4737 9.49506 63.1566 9.31005C62.7879 9.09807 62.3894 8.94453 61.9749 8.85477C61.4679 8.74376 60.9503 8.69062 60.4317 8.69631C60.0202 8.696 59.609 8.72236 59.2008 8.77522C58.8152 8.82468 58.4334 8.90088 58.0581 9.00332C57.7101 9.09896 57.3676 9.21472 57.0326 9.34999L56.7982 11.0337C57.1237 10.9152 57.4334 10.8161 57.726 10.7366C58.0187 10.657 58.3022 10.5913 58.5757 10.5385C58.8438 10.4866 59.1146 10.4504 59.3867 10.4299C59.6532 10.4101 59.9168 10.4 60.1775 10.3998C60.5758 10.3913 60.9734 10.4379 61.3592 10.5385C61.6409 10.61 61.8998 10.7533 62.1116 10.9548C62.3001 11.1506 62.4347 11.393 62.5022 11.658C62.5856 11.9845 62.625 12.321 62.6195 12.6583L62.6172 13.1552L60.3344 13.312C59.5535 13.3341 58.7841 13.5088 58.0685 13.8267C57.533 14.0643 57.0706 14.4442 56.7301 14.9261C56.4413 15.3549 56.2881 15.8627 56.2907 16.3819C56.287 16.8693 56.4047 17.3498 56.6328 17.7788C56.8716 18.2193 57.2311 18.5804 57.6678 18.8184C58.2007 19.0995 58.7961 19.236 59.3964 19.2146C59.9588 19.2276 60.5187 19.1337 61.047 18.9376C61.5037 18.7564 61.9216 18.4873 62.2776 18.1452C62.413 18.014 62.5413 17.8755 62.6621 17.7303C62.7 17.9354 62.7716 18.1327 62.8737 18.3139C63.0477 18.6172 63.3153 18.8539 63.6352 18.9874C63.9889 19.1315 64.3675 19.2023 64.7486 19.1954C64.8661 19.1954 64.9797 19.1918 65.0904 19.1855C65.1991 19.1789 65.307 19.1622 65.4127 19.1357C65.5169 19.1093 65.6113 19.0865 65.6959 19.0663C65.7725 19.0492 65.8476 19.026 65.9206 18.997L66.1355 17.6702C66.0277 17.7076 65.9166 17.7341 65.8037 17.7494C65.7129 17.7614 65.6215 17.7678 65.5299 17.7686ZM62.2773 16.8772C62.0655 17.047 61.8363 17.1932 61.5936 17.3133C61.3518 17.4324 61.0958 17.5189 60.8319 17.5708C60.5583 17.6241 60.2803 17.6506 60.0017 17.6497C59.6834 17.6591 59.3669 17.5983 59.0741 17.4714C58.8357 17.3667 58.6345 17.1906 58.4976 16.9666C58.3623 16.7292 58.2947 16.4583 58.3023 16.1842C58.2834 15.8538 58.3728 15.5264 58.5565 15.2529C58.7691 15.0012 59.0572 14.8273 59.3766 14.7577C59.8757 14.6387 60.3877 14.5856 60.9002 14.5995H62.6106L62.6022 16.5655C62.5028 16.6784 62.3941 16.7829 62.2773 16.8772Z" fill="white"/>
<path d="M63.5177 3.98193H61.4084L59.7481 7.52763H61.272L63.5177 3.98193Z" fill="white"/>
<path d="M75.5013 9.32026C74.8002 8.88499 73.9886 8.66802 73.1671 8.69629C72.6795 8.69875 72.1941 8.76183 71.7216 8.88413C71.2111 9.01596 70.7189 9.21239 70.2566 9.4688C70.1648 9.51931 70.074 9.57544 69.9828 9.63222V8.71607L67.9908 9.03304V23.1759H69.9828V18.7411C69.9962 18.7467 70.0086 18.753 70.0223 18.7589C70.3832 18.9108 70.76 19.0204 71.1454 19.0858C71.6005 19.1619 72.0612 19.1983 72.5225 19.1947C73.4019 19.2101 74.269 18.9841 75.0322 18.5407C75.7818 18.0903 76.391 17.4348 76.7902 16.6493C77.2512 15.7128 77.4759 14.6748 77.4442 13.6286C77.4627 12.7439 77.2929 11.8656 76.9465 11.0535C76.6409 10.3457 76.1387 9.74347 75.5013 9.32026ZM74.9837 15.9461C74.749 16.4721 74.3558 16.909 73.8606 17.1938C73.3101 17.4862 72.6944 17.6296 72.0733 17.6101C71.7757 17.6103 71.4785 17.587 71.1844 17.5404C70.8759 17.4906 70.5721 17.4145 70.2762 17.3129C70.1824 17.2799 70.0808 17.2423 69.9832 17.206V10.9548C70.0092 10.9425 70.0359 10.9267 70.0616 10.9148C70.3481 10.7828 70.6151 10.6704 70.8625 10.5777C71.0968 10.489 71.3388 10.4227 71.5853 10.3797C71.8045 10.3414 72.0265 10.3215 72.249 10.3202C72.8513 10.2999 73.449 10.4327 73.9878 10.7065C74.4587 10.9665 74.8274 11.3824 75.0325 11.8848C75.281 12.5276 75.3974 13.2151 75.3747 13.9052C75.3954 14.6065 75.2619 15.3037 74.9837 15.9461Z" fill="white"/>
<path d="M93.3639 9.11229C92.8313 8.81903 92.2311 8.67541 91.6254 8.69631C91.0997 8.69488 90.5777 8.78532 90.0823 8.96371C89.5792 9.14645 89.1053 9.40333 88.6759 9.72603C88.4326 9.90897 88.2011 10.1074 87.9828 10.3203C87.7827 9.82433 87.4296 9.4074 86.9765 9.13176C86.4373 8.83729 85.8305 8.69381 85.2185 8.7161C84.6962 8.7162 84.1776 8.80655 83.6852 8.98321C83.1798 9.16365 82.7028 9.41726 82.269 9.73622C82.1287 9.83857 81.9926 9.94982 81.8588 10.0664V8.71743L79.8664 9.01457V19.0178H81.8588V11.481C82.0934 11.3251 82.3382 11.1852 82.5913 11.0624C82.9011 10.9137 83.2251 10.7974 83.5582 10.7154C83.865 10.6388 84.1798 10.599 84.4958 10.5969C84.786 10.5879 85.075 10.6384 85.3455 10.7455C85.5692 10.8416 85.7669 10.991 85.9217 11.1809C86.0914 11.4019 86.2084 11.6596 86.2635 11.934C86.3397 12.2884 86.3758 12.6505 86.371 13.0132V19.0155H88.3634V12.5972C88.3647 12.2183 88.3395 11.8398 88.2878 11.4645C88.5138 11.3143 88.7477 11.1767 88.9885 11.0525C89.293 10.8968 89.6141 10.7772 89.9456 10.696C90.2589 10.618 90.5801 10.578 90.9027 10.5768C91.1896 10.5698 91.4751 10.6204 91.7427 10.7257C91.9705 10.8197 92.1717 10.9694 92.3286 11.1614C92.4985 11.3821 92.6156 11.6398 92.6704 11.9142C92.7466 12.2687 92.7827 12.6309 92.7779 12.9937V19.0155H94.7703V12.5778C94.7954 11.8286 94.676 11.0817 94.4187 10.379C94.2159 9.8495 93.8447 9.40375 93.3639 9.11229Z" fill="white"/>
<path d="M97.7198 19.0165H99.7122V8.71612L97.7198 9.01325V19.0165Z" fill="white"/>
<path d="M99.9075 5.06116C99.7915 4.85798 99.6269 4.68768 99.4289 4.56595C99.2262 4.44038 98.9927 4.37524 98.7551 4.37807C98.5146 4.37603 98.278 4.44104 98.0714 4.56595C97.8677 4.68688 97.6966 4.85699 97.5733 5.06116C97.4494 5.26689 97.3851 5.50381 97.3877 5.74486C97.3857 5.98884 97.4499 6.22867 97.5733 6.43814C97.6925 6.64552 97.8646 6.81656 98.0714 6.93335C98.28 7.05244 98.5158 7.11392 98.7551 7.11164C98.9915 7.11472 99.2242 7.05312 99.4289 6.93335C99.63 6.81566 99.7955 6.6444 99.9075 6.43814C100.025 6.22663 100.086 5.98758 100.083 5.74486C100.086 5.50509 100.025 5.26897 99.9075 5.06116Z" fill="white"/>
</svg>

<svg xmlns="http://www.w3.org/2000/svg" viewBox="0 0 101 24"><path fill="#fff" d="M0 19.003V5.005h4.593v13.998H0Zm10.843-11.77 2.642 11.77H8.457L5.303 5.005h2.82a2.655 2.655 0 0 1 1.764.64c.491.404.829.964.956 1.588Zm3.332 11.77V5.005h4.593v13.998h-4.594Zm8.062-8.675a2.779 2.779 0 0 1-2.425-1.39 2.735 2.735 0 0 1-.374-1.41 2.685 2.685 0 0 1 .375-1.4 2.813 2.813 0 0 1 3.824-1.005c.415.244.761.59 1.005 1.005.251.424.38.908.375 1.4.005.495-.125.983-.375 1.41a2.8 2.8 0 0 1-1.005 1.015c-.424.251-.908.38-1.4.375Zm3.49 8.675V5.005h4.594v13.998h-4.594Zm10.41-6.348c.012.013.11.174.295.483.184.308.424.702.72 1.183a373.133 373.133 0 0 1 1.862 3.056c.289.48.617 1.022.986 1.626h-5.047c-.315-.512-.601-.976-.858-1.39-.256-.414-.528-.86-.817-1.34-.29-.48-.576-.947-.858-1.4a71.148 71.148 0 0 1-.73-1.193 20.758 20.758 0 0 0-.424-.69 2.041 2.041 0 0 1-.334-.986c.02-.338.128-.665.315-.947.079-.131.223-.365.433-.7a212.331 212.331 0 0 0 1.598-2.603l.817-1.35.858-1.4H40l-3.904 6.369c-.12.189-.189.407-.197.63.013.236.095.463.236.652h.001ZM53.84 12.44a3.715 3.715 0 0 0-.977-.723 7.557 7.557 0 0 0-1.182-.485 13.318 13.318 0 0 0-1.29-.337 27.629 27.629 0 0 1-.947-.238 4.318 4.318 0 0 1-.781-.287 2.574 2.574 0 0 1-.595-.396c-.17-.151-.3-.342-.382-.555a2.163 2.163 0 0 1-.127-.782c-.004-.277.039-.551.127-.813.08-.23.214-.437.39-.604.184-.17.392-.31.617-.415.257-.12.53-.2.81-.238a6.76 6.76 0 0 1 1.006-.07c.307.001.613.018.918.05.308.032.615.082.918.149.295.064.585.147.87.247.266.093.524.21.771.347l.274-1.743a4.828 4.828 0 0 0-.87-.357 11.575 11.575 0 0 0-.928-.238 9.153 9.153 0 0 0-.957-.148 9.868 9.868 0 0 0-.996-.05 8.206 8.206 0 0 0-2.05.238 4.611 4.611 0 0 0-1.593.733c-.442.322-.798.75-1.035 1.248a4.08 4.08 0 0 0-.361 1.782c-.011.476.065.95.224 1.397.14.375.357.716.635 1 .276.279.592.513.938.694.366.191.749.35 1.143.475.41.132.83.245 1.26.337.351.079.677.162.976.248.279.077.55.18.81.307.225.107.432.247.616.416.175.166.311.369.4.594.104.271.154.56.147.852.005.309-.041.617-.137.91-.085.255-.218.49-.39.694a1.882 1.882 0 0 1-.625.475c-.27.126-.556.213-.85.258-.359.056-.721.082-1.084.08a8.38 8.38 0 0 1-1.055-.07c-.364-.046-.73-.11-1.094-.189-.36-.077-.714-.173-1.064-.287a19.84 19.84 0 0 1-.987-.346l.254 1.96c.333.127.672.236 1.016.327.312.084.628.15.947.198.306.046.612.083.919.11.306.026.615.04.927.04.7.003 1.397-.07 2.08-.219a4.942 4.942 0 0 0 1.7-.713 3.339 3.339 0 0 0 1.133-1.297 4.439 4.439 0 0 0 .4-1.991 4.53 4.53 0 0 0-.224-1.506 2.937 2.937 0 0 0-.646-1.069ZM65.53 17.769a.881.881 0 0 1-.762-.317 1.723 1.723 0 0 1-.215-1.05l.039-4.08a4.822 4.822 0 0 0-.156-1.268 3.123 3.123 0 0 0-.47-1.011 2.664 2.664 0 0 0-.81-.733 4.12 4.12 0 0 0-1.181-.455 6.862 6.862 0 0 0-1.543-.159 9.53 9.53 0 0 0-1.231.08c-.386.049-.768.125-1.143.227-.348.096-.69.212-1.025.347l-.235 1.684a11.662 11.662 0 0 1 1.778-.495c.268-.052.539-.089.81-.11.267-.019.53-.029.791-.03.399-.008.796.039 1.182.14.282.071.54.214.753.416.188.196.323.438.39.703.084.327.123.663.117 1l-.002.497-2.283.157c-.78.022-1.55.197-2.266.515a3.258 3.258 0 0 0-1.338 1.1 2.584 2.584 0 0 0-.44 1.455 2.93 2.93 0 0 0 .343 1.397c.239.44.598.801 1.035 1.04a3.44 3.44 0 0 0 1.728.396 4.447 4.447 0 0 0 1.651-.277c.457-.182.875-.45 1.23-.793.136-.131.264-.27.385-.415.038.205.11.403.212.584.174.303.441.54.761.673.354.145.733.215 1.114.208.117 0 .23-.003.341-.01.11-.006.217-.023.323-.05l.283-.069c.076-.017.152-.04.225-.069l.214-1.327a1.714 1.714 0 0 1-.331.08c-.091.011-.183.018-.274.019Zm-3.253-.892c-.212.17-.44.316-.683.436a3.06 3.06 0 0 1-.762.258 4.27 4.27 0 0 1-.83.079 2.17 2.17 0 0 1-.928-.179 1.279 1.279 0 0 1-.576-.504 1.497 1.497 0 0 1-.196-.783c-.019-.33.07-.658.255-.931.212-.252.5-.426.82-.495A5.88 5.88 0 0 1 60.9 14.6h1.71l-.008 1.966c-.1.112-.208.217-.325.311ZM63.518 3.982h-2.11l-1.66 3.546h1.524l2.246-3.546ZM75.501 9.32a4.153 4.153 0 0 0-2.334-.624 5.886 5.886 0 0 0-1.445.188 6.234 6.234 0 0 0-1.74.748v-.916l-1.991.317v14.143h1.992V18.74l.04.018c.36.152.737.261 1.122.327.456.076.916.112 1.377.109.88.015 1.747-.21 2.51-.654a4.676 4.676 0 0 0 1.758-1.892 6.403 6.403 0 0 0 .654-3.02 6.233 6.233 0 0 0-.498-2.575 3.966 3.966 0 0 0-1.445-1.734Zm-.517 6.626a2.713 2.713 0 0 1-1.123 1.248 3.57 3.57 0 0 1-1.788.416 5.491 5.491 0 0 1-1.797-.297c-.094-.033-.195-.07-.293-.107v-6.251c.026-.012.053-.028.079-.04.286-.132.553-.245.8-.337a3.967 3.967 0 0 1 1.387-.258c.602-.02 1.2.113 1.739.386.47.26.84.676 1.044 1.179.249.643.365 1.33.343 2.02a4.782 4.782 0 0 1-.391 2.041ZM93.364 9.112a3.363 3.363 0 0 0-1.739-.416 4.518 4.518 0 0 0-1.543.268c-.503.182-.977.44-1.406.762a7.129 7.129 0 0 0-.693.594 2.473 2.473 0 0 0-1.007-1.188 3.408 3.408 0 0 0-1.757-.416c-.523 0-1.041.09-1.534.267a5.53 5.53 0 0 0-1.826 1.083V8.717l-1.993.298v10.003h1.993V11.48c.234-.156.48-.296.732-.419.31-.148.634-.265.967-.347a3.98 3.98 0 0 1 .938-.118c.29-.01.579.041.85.149.223.096.42.245.576.435.17.22.286.479.341.753.077.354.113.716.108 1.08v6.002h1.992v-6.419a8.097 8.097 0 0 0-.075-1.133c.226-.15.46-.287.7-.412.305-.155.626-.275.958-.356.313-.078.634-.118.957-.12a2.15 2.15 0 0 1 .84.15c.228.094.429.243.586.435.17.221.287.479.341.753.077.355.113.717.108 1.08v6.021h1.992v-6.437a5.829 5.829 0 0 0-.351-2.199 2.544 2.544 0 0 0-1.055-1.267ZM97.72 19.017h1.992v-10.3l-1.992.296v10.004ZM99.907 5.061a1.39 1.39 0 0 0-.478-.495 1.25 1.25 0 0 0-.674-.188 1.3 1.3 0 0 0-.684.188c-.203.12-.374.291-.498.495a1.298 1.298 0 0 0-.185.684c-.002.244.062.484.185.693a1.353 1.353 0 0 0 1.182.674 1.282 1.282 0 0 0 1.152-.674c.118-.211.179-.45.176-.693a1.356 1.356 0 0 0-.175-.684Z"/></svg>
